svgs/sharp-light/chart-line-up.svg

<svg xmlns="http://www.w3.org/2000/svg" viewBox="0 0 512 512"><!--! Font Awesome Pro 6.6.0 by @fontawesome - https://fontawesome.com License - https://fontawesome.com/license (Commercial License) Copyright 2024 Fonticons, Inc. --><path d="M32 48l0-16L0 32 0 48 0 464l0 16 16 0 480 0 16 0 0-32-16 0L32 448 32 48zm304 80l-16 0 0 32 16 0 89.4 0L320 265.4l-84.7-84.7L224 169.4l-11.3 11.3-112 112L89.4 304 112 326.6l11.3-11.3L224 214.6l84.7 84.7L320 310.6l11.3-11.3L448 182.6l0 89.4 0 16 32 0 0-16 0-128 0-16-16 0-128 0z"/></svg>

<svg xmlns="http://www.w3.org/2000/svg" viewBox="0 0 512 512"><!--! Font Awesome Pro 6.4.0 by @fontawesome - https://fontawesome.com License - https://fontawesome.com/license (Commercial License) Copyright 2023 Fonticons, Inc. --><path d="M32 48V32H0V48 464v16H16 496h16V448H496 32V48zm304 80H320v32h16 89.4L320 265.4l-84.7-84.7L224 169.4l-11.3 11.3-112 112L89.4 304 112 326.6l11.3-11.3L224 214.6l84.7 84.7L320 310.6l11.3-11.3L448 182.6V272v16h32V272 144 128H464 336z"/></svg>
